docs/.gitbook/assets/icon-battery-charging-16@light.svg

<svg width="32" height="32" viewBox="0 0 16 16" fill="none" xmlns="http://www.w3.org/2000/svg">
<rect x="0" y="0" width="16" height="16" fill="#fff"/>
<path fill-rule="evenodd" clip-rule="evenodd" d="M1 5.75C1 4.23122 2.23122 3 3.75 3H10.25C11.7688 3 13 4.23122 13 5.75V6C14.1046 6 15 6.89543 15 8C15 9.10457 14.1046 10 13 10V10.25C13 11.7688 11.7688 13 10.25 13H3.75C2.23122 13 1 11.7688 1 10.25V5.75ZM13 8.5C13.2761 8.5 13.5 8.27614 13.5 8C13.5 7.72386 13.2761 7.5 13 7.5V8.5ZM3.75 4.5C3.05964 4.5 2.5 5.05964 2.5 5.75V10.25C2.5 10.9404 3.05964 11.5 3.75 11.5H10.25C10.9404 11.5 11.5 10.9404 11.5 10.25V5.75C11.5 5.05964 10.9404 4.5 10.25 4.5H3.75ZM7.66603 5.12596C8.01067 5.35573 8.1038 5.82138 7.87404 6.16603L7.15139 7.25H8.25C8.5266 7.25 8.78074 7.40224 8.91126 7.64611C9.04177 7.88997 9.02747 8.18588 8.87404 8.41603L7.37404 10.666C7.14427 11.0107 6.67862 11.1038 6.33397 10.874C5.98933 10.6443 5.8962 10.1786 6.12596 9.83397L6.84861 8.75H5.75C5.4734 8.75 5.21926 8.59776 5.08874 8.35389C4.95823 8.11003 4.97253 7.81412 5.12596 7.58397L6.62596 5.33397C6.85573 4.98933 7.32138 4.8962 7.66603 5.12596Z" fill="#000"/>
</svg>

<svg xmlns="http://www.w3.org/2000/svg" width="32" height="32" fill="none" viewBox="0 0 16 16"><path fill="#fff" d="M0 0h16v16H0z"/><path fill="#000" fill-rule="evenodd" d="M1 5.75A2.75 2.75 0 0 1 3.75 3h6.5A2.75 2.75 0 0 1 13 5.75V6a2 2 0 1 1 0 4v.25A2.75 2.75 0 0 1 10.25 13h-6.5A2.75 2.75 0 0 1 1 10.25zM13 8.5a.5.5 0 0 0 0-1zm-9.25-4c-.69 0-1.25.56-1.25 1.25v4.5c0 .69.56 1.25 1.25 1.25h6.5c.69 0 1.25-.56 1.25-1.25v-4.5c0-.69-.56-1.25-1.25-1.25zm3.916.626a.75.75 0 0 1 .208 1.04L7.151 7.25H8.25a.75.75 0 0 1 .624 1.166l-1.5 2.25a.75.75 0 1 1-1.248-.832l.723-1.084H5.75a.75.75 0 0 1-.624-1.166l1.5-2.25a.75.75 0 0 1 1.04-.208" clip-rule="evenodd"/></svg>
